!! 00048] TT[KA
!! NN
!!!OTL: Cai Cha ge
!!!ARE: Asia, China,ÿHainan, Nanhai Jiujiang
!! Ethnic Group: Han
!! II, 349, 1)
!!!SCT: C0240
!!!YEM: Copyright 1995, estate of Helmut Schaffrath.
**kern
*ICvox
*Ivox
!! Mixed meters:  2/4; 3/4
*M3/4
*k[b-]
*F:
{4a
4f
=1
4g
4a
=2
4d
4c
=3
4g
8a
8g
=4
4f
8d
8r}
=5
{4g
4a
4a
=6
*M2/4
4g
4e
=7
*M3/4
8d
8f
4.c
8d
=8
*M2/4
8c
8d
4f
=9
4d
4c
=10
4d
4r}
=11
{4f
8g
8a
=12
4a
4cc
=13
4a
8a
8c
=14
4g
8a
8g
=15
4f
4d}
=16
{4A
4f
=17
8f
8d
8c
8d
=18
4a
4cc
=19
4.f
8c
=20
2d}
==
!!!AGN: Xiaodiao, Wuge, Caicha. Xin minge
!! +++Band 12 absuchen+++ ggf auch 130 vergleichen +++
!!    die folgenden Signaturen enthalten synonyme Titel oder wichtige
!!    synonyme Bestandteile(bestehende Sign mitgenannt:
!!    126, 130, 240, 409, 364, 363, 609, 625, 634, 698, 854,
!!    926, 927, 1118, 1222, 733.
!!!ONB: ESAC (Essen Associative Code) Database: CHINA
!!!AMT: irregular
!!!AIN: vox
!!!EED: Helmut Schaffrath
!!!EEV: 1.0
*-
